fs/form_20_filled.svg

<svg viewBox="0 0 20 20" fill="none" xmlns="http://www.w3.org/2000/svg" height="1em" width="1em">
  <path d="M6.5 10C6.77614 10 7 9.77614 7 9.5C7 9.22386 6.77614 9 6.5 9C6.22386 9 6 9.22386 6 9.5C6 9.77614 6.22386 10 6.5 10ZM7 13.5C7 13.7761 6.77614 14 6.5 14C6.22386 14 6 13.7761 6 13.5C6 13.2239 6.22386 13 6.5 13C6.77614 13 7 13.2239 7 13.5ZM3 6C3 4.34315 4.34315 3 6 3H14C15.6569 3 17 4.34315 17 6V14C17 15.6569 15.6569 17 14 17H6C4.34315 17 3 15.6569 3 14V6ZM5.5 5C5.22386 5 5 5.22386 5 5.5C5 5.77614 5.22386 6 5.5 6H14.5C14.7761 6 15 5.77614 15 5.5C15 5.22386 14.7761 5 14.5 5H5.5ZM6.5 11C7.32843 11 8 10.3284 8 9.5C8 8.67157 7.32843 8 6.5 8C5.67157 8 5 8.67157 5 9.5C5 10.3284 5.67157 11 6.5 11ZM8 13.5C8 12.6716 7.32843 12 6.5 12C5.67157 12 5 12.6716 5 13.5C5 14.3284 5.67157 15 6.5 15C7.32843 15 8 14.3284 8 13.5ZM9 9.5C9 9.77614 9.22386 10 9.5 10H14.5C14.7761 10 15 9.77614 15 9.5C15 9.22386 14.7761 9 14.5 9H9.5C9.22386 9 9 9.22386 9 9.5ZM9.5 13C9.22386 13 9 13.2239 9 13.5C9 13.7761 9.22386 14 9.5 14H14.5C14.7761 14 15 13.7761 15 13.5C15 13.2239 14.7761 13 14.5 13H9.5Z" fill="#212121"/>
</svg>

<svg viewBox="0 0 20 20" fill="none" xmlns="http://www.w3.org/2000/svg" height="1em" width="1em">
  <path d="M6.5 10a.5.5 0 1 0 0-1 .5.5 0 0 0 0 1Zm.5 3.5a.5.5 0 1 1-1 0 .5.5 0 0 1 1 0ZM3 6a3 3 0 0 1 3-3h8a3 3 0 0 1 3 3v8a3 3 0 0 1-3 3H6a3 3 0 0 1-3-3V6Zm2.5-1a.5.5 0 0 0 0 1h9a.5.5 0 0 0 0-1h-9Zm1 6a1.5 1.5 0 1 0 0-3 1.5 1.5 0 0 0 0 3ZM8 13.5a1.5 1.5 0 1 0-3 0 1.5 1.5 0 0 0 3 0Zm1-4a.5.5 0 0 0 .5.5h5a.5.5 0 0 0 0-1h-5a.5.5 0 0 0-.5.5Zm.5 3.5a.5.5 0 0 0 0 1h5a.5.5 0 0 0 0-1h-5Z" fill="#212121"/>
</svg>
